packages/icons/svg/Outline/globe-2.svg

<svg fill="none" height="24" viewBox="0 0 24 24" width="24" xmlns="http://www.w3.org/2000/svg"><path clip-rule="evenodd" d="m16.8887 18.3185c-.172-.433-.416-.811-.63-1.134-.108-.162-.219-.327-.316-.497-.389-.676-.255-.95.376-2.007l.102-.173c.511-.861.539-1.687.565-2.415.012-.358.024-.695.093-1.012.161-.732 1.708-.927 2.667-1.042.161.629.254 1.284.254 1.962 0 2.569-1.222 4.853-3.111 6.318zm-11.92701-2.5191c.636.162 1.325.274 2.026.274 1.08 0 2.183-.264 3.13701-1.011 1.716-1.342 1.716-3.058 1.716-4.438 0-.89204 0-1.66104.372-2.34404.2-.366.626-.62 1.119-.915.302-.181.615-.367.915-.603.643-.503 1.121-1.15 1.417-1.866 1.4.725 2.56 1.848 3.326 3.223-1.428.198-3.455.666-3.864 2.53304-.108.494-.125.959-.138 1.37-.021.583-.037 1.044-.287 1.466l-.1.168c-.647 1.083-1.379 2.311-.392 4.028.119.208.252.408.383.607.344.516.513.801.514 1.081-.955.404-2.005.628-3.106.628-3.03701 0-5.68301-1.702-7.03801-4.201zm7.03801-11.79885c.616 0 1.211.076 1.787.208-.169.372-.43.711-.774.98-.218.172-.463.315-.706.46-.651.388-1.388.828-1.85 1.674-.61599 1.13-.61599 2.284-.61599 3.30205 0 1.355-.044 2.156-.948 2.863-1.369 1.073-3.464.474-4.76-.071-.082-.461-.133-.933-.133-1.416 0-4.41105 3.589-8.00005 7.99999-8.00005zm0-2.00006c-5.51401 0-10.00001 4.486-10.00001 10.00001 0 5.513 4.486 10 10.00001 10 5.514 0 10-4.487 10-10 0-5.51401-4.486-10.00001-10-10.00001z" fill="#6b7280" fill-rule="evenodd"/></svg>

<svg width="24" height="24" viewBox="0 0 24 24" fill="none" xmlns="http://www.w3.org/2000/svg">
<g id="Icon/Outline/globe-2">
<path id="Mask" fill-rule="evenodd" clip-rule="evenodd" d="M16.8888 18.3184C16.7168 17.8854 16.4728 17.5074 16.2588 17.1844C16.1508 17.0224 16.0398 16.8574 15.9428 16.6874C15.5538 16.0114 15.6878 15.7374 16.3188 14.6804L16.4208 14.5074C16.9318 13.6464 16.9598 12.8204 16.9858 12.0924C16.9978 11.7344 17.0098 11.3974 17.0788 11.0804C17.2398 10.3484 18.7868 10.1534 19.7458 10.0384C19.9068 10.6674 19.9998 11.3224 19.9998 12.0004C19.9998 14.5694 18.7778 16.8534 16.8888 18.3184ZM4.96176 15.7994C5.59776 15.9614 6.28676 16.0734 6.98776 16.0734C8.06776 16.0734 9.17076 15.8094 10.1248 15.0624C11.8408 13.7204 11.8408 12.0044 11.8408 10.6244C11.8408 9.7324 11.8408 8.9634 12.2128 8.2804C12.4128 7.9144 12.8388 7.6604 13.3318 7.3654C13.6338 7.1844 13.9468 6.9984 14.2468 6.7624C14.8898 6.2594 15.3678 5.6124 15.6638 4.8964C17.0638 5.6214 18.2238 6.7444 18.9898 8.1194C17.5618 8.3174 15.5348 8.7854 15.1258 10.6524C15.0178 11.1464 15.0008 11.6114 14.9878 12.0224C14.9668 12.6054 14.9508 13.0664 14.7008 13.4884L14.6008 13.6564C13.9538 14.7394 13.2218 15.9674 14.2088 17.6844C14.3278 17.8924 14.4608 18.0924 14.5918 18.2914C14.9358 18.8074 15.1048 19.0924 15.1058 19.3724C14.1508 19.7764 13.1008 20.0004 11.9998 20.0004C8.96276 20.0004 6.31676 18.2984 4.96176 15.7994ZM11.9998 4.0004C12.6158 4.0004 13.2108 4.0764 13.7868 4.2084C13.6178 4.5804 13.3568 4.9194 13.0128 5.1884C12.7948 5.3604 12.5498 5.5034 12.3068 5.6484C11.6558 6.0364 10.9188 6.4764 10.4568 7.3224C9.84076 8.4524 9.84076 9.6064 9.84076 10.6244C9.84076 11.9794 9.79676 12.7804 8.89276 13.4874C7.52376 14.5604 5.42876 13.9614 4.13276 13.4164C4.05076 12.9554 3.99976 12.4834 3.99976 12.0004C3.99976 7.5894 7.58876 4.0004 11.9998 4.0004ZM11.9998 2.0004C6.48576 2.0004 1.99976 6.4864 1.99976 12.0004C1.99976 17.5134 6.48576 22.0004 11.9998 22.0004C17.5138 22.0004 21.9998 17.5134 21.9998 12.0004C21.9998 6.4864 17.5138 2.0004 11.9998 2.0004Z" fill="#000000"/>
</g>
</svg>
